X:1
T:Title
%%score { ( 1 3 ) | ( 2 4 ) }
L:1/8
Q:1/4=106
M:4/4
K:Ab
V:1 treble nm="Grand Piano"
V:3 treble 
V:2 treble 
V:4 treble 
V:1
 c>d c>B A2 [CE]2 | [EA]>[EA] B>B c4 | d>B c>d e2 c2 | [AB]>[Ac] [AB]>[Ac] [GB]4 | %4
w: Jay~H.~Downs * * * * *||||
 c>d c>B A2 [CE]2 | [EA]>[EA] B>B c2 [_Ge]2 | [Fe]>[Fd] [EFc]>[DFB] [CEA]2 [B,DG]2 | [A,CA]6 z2 | %8
w: ||||
 [EB]4 e4 | [Ec]4 [A,EA]4 | [A,DF]>[A,DF] [=EG]>[EG] [FA]2 [Fd]2 | c4 B4 | c>d c>B [CA]2 [CE]2 | %13
w: |||||
 [EA]>[EA] B>B c2 [_Ge]2 | [Fe]>[Fd] [EFc]>[DFB] [CEA]2 [B,DG]2 | [A,CA]6 z2 |] %16
w: |||
V:2
 [A,EA]>[A,FA] [A,EA]>[A,DE] [A,CE]2[K:bass] [A,,A,]2 | %1
 [C,A,]>[C,A,] [E,G,E]>[E,G,E][K:treble] [A,E]4 | [B,EG]>[DEG] [CEG]>[B,EG] [A,CA]2 [A,EA]2 | %3
 [F,=D]>[F,D] [B,D]>[B,D] [E,E]4 | [A,EA]>[A,EA] [A,EA]>[A,DE] [A,CE]2[K:bass] [A,,A,]2 | %5
 [C,A,]>[C,A,] [E,G,E]>[E,G,E] [A,E]2 [C,A,]2 | [D,A,]>[D,B,] D,>D, E,2 E,2 | A,,6 z2 | z4 E4 | %9
 A,4 z4 | D,>D, [C,C]>[C,C] [F,C]2 [B,,A,]2 | [E,A,E]4 [E,G,E]4 | %12
 [A,E]>[A,F][K:bass] [A,E]>[A,D] [A,,A,]2 [A,,A,]2 | [C,A,]>[C,A,] [E,G,E]>[E,G,E] [A,E]2 [C,A,]2 | %14
 [D,A,]>[D,B,] D,>D, E,2 E,2 | A,,6 z2 |] %16
V:3
 x8 | x8 | x8 | x8 | x8 | x8 | x8 | x8 | z2 A,2 z2 G,2 | x8 | x8 | x8 | x8 | x8 | x8 | x8 |] %16
V:4
 x6[K:bass] x2 | x4[K:treble] x4 | x8 | x8 | x6[K:bass] x2 | x8 | x8 | x8 | %8
 [E,G,]2 F,2 [G,B,]2 E,2 | z2 E,2 C,2 A,,2 | x8 | x8 | x2[K:bass] x6 | x8 | x8 | x8 |] %16

